icon-themes/sifr_svg/cmd/lc_calculate.svg

<svg viewBox="0 0 24 24" xmlns="http://www.w3.org/2000/svg"><path d="m3 2v21h7v-2h-5v-17h8v5h5v2h2v-3l-6-6zm15 10v2h1c1.104569 0 2 .895431 2 2s-.895431 2-2 2h-4.822266l1.509766-1.28125c.18267-.19029.3125-.46186.3125-.71875v-1h-.414062-.585938c-.30945 0-.55232.0903-.75.28125-1.083468.820629-2.166535 1.930538-3.25 2.888672v1.705078l3.25 2.84375c.19768.19096.44055.28125.75.28125h.585938.414062v-1c0-.25689-.12983-.52846-.3125-.71875l-1.509766-1.28125h4.822266c2.209139 0 4-1.790861 4-4s-1.790861-4-4-4z" fill="#555753"/></svg>

<svg xmlns="http://www.w3.org/2000/svg" viewBox="0 0 24 24">
  <path
     style="fill:#555753"
     d="M 3 2 L 3 23 L 10 23 L 10 21 L 5 21 L 5 4 L 13 4 L 13 9 L 18 9 L 18 11 L 20 11 L 20 8 L 14 2 L 3 2 z M 18 12 L 18 14 L 19 14 C 20.104569 14 21 14.895431 21 16 C 21 17.104569 20.104569 18 19 18 L 14.177734 18 L 15.6875 16.71875 C 15.87017 16.52846 16 16.25689 16 16 L 16 15 L 15.585938 15 L 15 15 C 14.69055 15 14.44768 15.0903 14.25 15.28125 C 13.166532 16.101879 12.083465 17.211788 11 18.169922 L 11 19.875 L 14.25 22.71875 C 14.44768 22.90971 14.69055 23 15 23 L 15.585938 23 L 16 23 L 16 22 C 16 21.74311 15.87017 21.47154 15.6875 21.28125 L 14.177734 20 L 19 20 C 21.209139 20 23 18.209139 23 16 C 23 13.790861 21.209139 12 19 12 L 18 12 z "
     />
</svg>
